logo/erlang.svg

<?xml version="1.0" encoding="UTF-8" standalone="no"?>
<svg width="256px" height="225px" viewBox="0 0 256 225" version="1.1" xmlns="http://www.w3.org/2000/svg" xmlns:xlink="http://www.w3.org/1999/xlink" preserveAspectRatio="xMidYMid">
	<g>
		<rect fill="#FFFFFF" x="0" y="0" width="256" height="225"></rect>
		<g transform="translate(6.336634, 5.702970)" fill="#A90533">
			<path d="M38.0033267,153.956119 C19.2,134.031208 8.19833663,106.504871 8.22621782,73.662099 C8.20023762,44.6168713 17.3262574,19.6511683 33.0151287,0.653940594 L32.9897822,0.663445545 L0.0139405941,0.663445545 L0.0139405941,153.959287 L37.9798812,153.959287 L38.0033267,153.956119 L38.0033267,153.956119 Z"></path>
			<path d="M211.672713,153.968792 C219.772832,145.293307 227.030812,135.076119 233.607604,123.391366 L197.108594,105.141861 C184.290218,125.981149 165.544554,145.162772 139.622653,145.290772 C101.896238,145.162772 87.0735842,112.90297 87.1553267,71.3802772 L228.132752,71.3802772 C228.32095,66.6924356 228.32095,64.5126337 228.132752,62.2561584 C229.052832,37.5527921 222.505822,16.7882772 210.596119,0.617821782 L210.534653,0.664079208 L242.276119,0.664079208 L242.276119,153.959921 L211.603644,153.959921 L211.672713,153.968792 L211.672713,153.968792 Z"></path>
			<path d="M89.4371485,35.7937426 C90.9978614,16.9942178 105.819881,4.35136634 123.198733,4.31334653 C140.696079,4.35136634 153.338297,16.9942178 153.766653,35.7937426 L89.4371485,35.7937426 L89.4371485,35.7937426 Z"></path>
		</g>
		<g transform="translate(6.336634, 178.059406)" fill="#000000">
			<path d="M20.0890297,7.60839604 L20.0890297,1.22170297 L0.470811881,1.22170297 L0.470811881,39.0894257 L20.0890297,39.0894257 L20.0890297,32.7014653 L7.77061386,32.7014653 L7.77061386,22.6648713 L19.6321584,22.6648713 L19.6321584,16.2775446 L7.77061386,16.2775446 L7.77061386,7.60839604 L20.0890297,7.60839604 L20.0890297,7.60839604 Z"></path>
			<path d="M53.3943762,23.1204752 C58.2849901,22.394297 60.9704554,17.5480396 61.1504158,12.6270099 C60.9704554,4.57631683 55.751604,1.24514851 48.3757624,1.22106931 L38.3385347,1.22106931 L38.3385347,39.0887921 L45.6383366,39.0887921 L45.6383366,24.0329505 L54.7630891,39.0887921 L63.8878416,39.0887921 L53.3943762,23.1204752 L53.3943762,23.1204752 Z M45.637703,7.15279208 L46.5501782,7.15279208 C50.5327525,7.30233663 53.5217426,8.2110099 53.3937426,13.0838812 C53.5217426,17.5486733 50.6341386,18.7602376 46.5501782,18.5587327 L45.637703,18.5587327 L45.637703,7.15279208 L45.637703,7.15279208 Z"></path>
			<path d="M86.6990891,1.22170297 L79.3999208,1.22170297 L79.3999208,39.0894257 L97.1925545,39.0894257 L97.1925545,32.7014653 L86.6990891,32.7014653 L86.6990891,1.22170297 L86.6990891,1.22170297 Z"></path>
			<path d="M134.60404,31.3327525 L137.797703,39.0887921 L145.553743,39.0887921 L131.410376,0.308594059 L125.479287,0.308594059 L110.423446,39.0887921 L118.178851,39.0887921 L121.373149,31.3327525 L134.60404,31.3327525 L134.60404,31.3327525 Z M132.779089,25.402297 L123.654337,25.402297 L127.760475,11.2589307 L132.779089,25.402297 L132.779089,25.402297 Z"></path>
			<path d="M159.241505,39.0894257 L166.996911,39.0894257 L166.996911,13.5401188 L187.072,40.0012673 L192.546218,40.0012673 L192.546218,1.22170297 L184.790812,1.22170297 L184.790812,26.7710099 L164.715723,0.308594059 L159.241505,0.308594059 L159.241505,39.0894257 L159.241505,39.0894257 Z"></path>
			<path d="M224.483485,19.0143366 L224.483485,24.9454257 L232.695762,24.9454257 C232.524673,29.7118416 228.623842,33.7501782 224.027248,33.6139406 C216.768,33.7501782 213.170693,26.7348911 213.077545,20.3830495 C213.170693,14.1161188 216.717307,6.79730693 224.027248,6.69592079 C227.863446,6.79667327 231.106535,9.42130693 232.695762,12.6270099 L239.083089,9.43334653 C236.274059,3.51619802 230.599604,0.235089109 224.027248,0.308594059 C212.714455,0.235722772 205.469782,9.57338614 205.321505,20.3830495 C205.469782,30.9234059 212.512317,40.3117624 223.57101,40.457505 C235.514297,40.3117624 241.036673,30.7719604 240.90804,19.9268119 L240.90804,19.0143366 L224.483485,19.0143366 L224.483485,19.0143366 L224.483485,19.0143366 Z"></path>
		</g>
	</g>
</svg>

<svg viewBox="0 0 256 225" xmlns="http://www.w3.org/2000/svg"><path fill="#FFF" d="M0 0h256v225H0Z"/><g transform="translate(6.33663 5.70297)"><g fill="#A90533"><path d="M38 153.95c-18.81-19.93-29.81-47.46-29.78-80.3C8.19 44.6 17.32 19.63 33 .64l-.03 0H-.01v153.29h37.96l.02-.01v0Z"/><path d="M211.67 153.96c8.1-8.68 15.35-18.9 21.93-30.58l-36.5-18.25c-12.82 20.83-31.57 40.02-57.49 40.14 -37.73-.13-52.55-32.39-52.47-73.92h140.97c.18-4.69.18-6.87 0-9.13 .92-24.71-5.63-45.47-17.54-61.64l-.07.04h31.74v153.29h-30.68l.06 0v0Z"/><path d="M89.43 35.79c1.56-18.8 16.38-31.45 33.76-31.49 17.49.03 30.13 12.68 30.56 31.48H89.42v0Z"/></g></g><g transform="translate(6.33663 178.059)"><g><path d="M20.08 7.6V1.21H.46v37.86h19.61v-6.39H7.75V22.64h11.86v-6.39H7.74V7.58h12.31v0Z"/><path d="M53.39 23.12c4.89-.73 7.57-5.58 7.75-10.5 -.18-8.06-5.4-11.39-12.78-11.41H38.32v37.86h7.29V24.01l9.12 15.05h9.12l-10.5-15.97v0ZM45.63 7.15h.91c3.98.14 6.97 1.05 6.84 5.93 .12 4.46-2.76 5.67-6.85 5.47h-.92V7.14v0Z"/><path d="M86.69 1.22h-7.3v37.86h17.79v-6.39h-10.5V1.21v0Z"/><path d="M134.6 31.33l3.19 7.75h7.75L131.39.29h-5.94l-15.06 38.78h7.75l3.19-7.76h13.23v0Zm-1.83-5.94h-9.13l4.1-14.15 5.01 14.14v0Z"/><path d="M159.24 39.08h7.75V13.53l20.07 26.46h5.47V1.21h-7.76v25.54L164.69.28h-5.48v38.78 0Z"/><path d="M224.48 19.01v5.93h8.21c-.18 4.76-4.08 8.8-8.67 8.66 -7.26.13-10.86-6.88-10.95-13.24 .09-6.27 3.63-13.59 10.94-13.69 3.83.1 7.07 2.72 8.66 5.93l6.38-3.2c-2.81-5.92-8.49-9.2-15.06-9.13 -11.32-.08-18.56 9.26-18.71 20.07 .14 10.54 7.19 19.92 18.24 20.07 11.94-.15 17.46-9.69 17.33-20.54v-.92h-16.43v0 0Z"/></g></g></svg>
